!!!OTL: Von Gott will ich nicht lassen
!!!ARE: Europa, Mitteleuropa, Deutschland
!!!SCT: A0642B
!!!YEM: Copyright 1995, estate of Helmut Schaffrath.
**kern
*ICvox
*Ivox
*M4/4
*k[b-e-]
*g:
{4g
=1
4g
4a
4b-
4g
=2
2a
4fn}
{4fn
=3
4g
4g
4a
4a
=4
2d
4r}
{4g
=5
4g
4a
4b-
4g
=6
2a
4fn}
{4fn
=7
4g
4g
4a
4a
=8
2d
4r}
{4dd
=9
4cc
4b-
4b-
4a
=10
2b-
4r}
{4b-
=11
4b-
4cc
4dd
4b-
=12
2cc
4a}
{4a
=13
4b-
4b-
4g
4g
=14
2a
4fn}
{4d
=15
4e
4g
4g
4f#
=16
2.g}
==
!!!AGN: Romanze, Ballade, Lied, religioeses Lied
!! Dermantius 1611
!!!ONB: ESAC (Essen Associative Code) Database: ALTDEU
!!!AMT: simple quadruple
!!!AIN: vox
!!!EED: Helmut Schaffrath
!!!EEV: 1.0
*-
